assets/images/add-reaction.svg

<svg xmlns="http://www.w3.org/2000/svg" viewBox="0 0 19 19" xml:space="preserve"><path fill-rule="evenodd" d="M7.5 15C3.35786 15 0 11.6421 0 7.5C0 3.35786 3.35786 0 7.5 0C11.6421 0 15 3.35786 15 7.5C15 8.01502 14.9481 8.51791 14.8492 9.00373C13.2624 9.08228 12 10.3937 12 12C10.3937 12 9.08228 13.2624 9.00373 14.8492C8.51791 14.9481 8.01501 15 7.5 15ZM10.4167 5.83333C9.72631 5.83333 9.16667 5.27369 9.16667 4.58333C9.16667 3.89298 9.72631 3.33333 10.4167 3.33333C11.107 3.33333 11.6667 3.89298 11.6667 4.58333C11.6667 5.27369 11.107 5.83333 10.4167 5.83333ZM7.5 12.5C5.65905 12.5 4.16667 10.6345 4.16667 8.33333L10.8333 8.33333C10.8333 10.6345 9.34095 12.5 7.5 12.5ZM3.33333 4.58333C3.33333 5.27369 3.89298 5.83333 4.58333 5.83333C5.27369 5.83333 5.83333 5.27369 5.83333 4.58333C5.83333 3.89298 5.27369 3.33333 4.58333 3.33333C3.89298 3.33333 3.33333 3.89298 3.33333 4.58333Z" clip-rule="evenodd"/><path d="M15.0059 11.0001C14.4536 11.0001 14.0059 11.4478 14.0059 12.0001V14.0001H12.0059C11.4536 14.0001 11.0059 14.4478 11.0059 15.0001C11.0059 15.5524 11.4536 16.0001 12.0059 16.0001H14.0059V18.0001C14.0059 18.5524 14.4536 19.0001 15.0059 19.0001C15.5582 19.0001 16.0059 18.5524 16.0059 18.0001V16.0001H18.0059C18.5582 16.0001 19.0059 15.5524 19.0059 15.0001C19.0059 14.4478 18.5582 14.0001 18.0059 14.0001H16.0059V12.0001C16.0059 11.4478 15.5582 11.0001 15.0059 11.0001Z"/></svg>

<svg xmlns="http://www.w3.org/2000/svg" xml:space="preserve" viewBox="0 0 19 19"><path fill-rule="evenodd" d="M7.5 15a7.5 7.5 0 1 1 7.35-5.996A3 3 0 0 0 12 12a3 3 0 0 0-2.996 2.85q-.73.148-1.504.15m2.917-9.167a1.25 1.25 0 1 1 0-2.5 1.25 1.25 0 0 1 0 2.5M7.5 12.5c-1.841 0-3.333-1.866-3.333-4.167h6.666c0 2.301-1.492 4.167-3.333 4.167M3.333 4.583a1.25 1.25 0 1 0 2.5 0 1.25 1.25 0 0 0-2.5 0" clip-rule="evenodd"/><path d="M15.006 11a1 1 0 0 0-1 1v2h-2a1 1 0 1 0 0 2h2v2a1 1 0 1 0 2 0v-2h2a1 1 0 1 0 0-2h-2v-2a1 1 0 0 0-1-1"/></svg>
